src/icons/ledger.svg

<svg viewBox="0 0 24 24" fill="none" xmlns="http://www.w3.org/2000/svg">
<path d="M18.7587 2.00002H9.6166V14.3333H21.9599V5.19121C21.9599 4.77129 21.877 4.3555 21.716 3.96767C21.555 3.57984 21.3191 3.2276 21.0217 2.93114C20.7243 2.63468 20.3713 2.39983 19.983 2.24004C19.5946 2.08026 19.1786 1.9987 18.7587 2.00002Z" fill="currentColor"/>
<path d="M6.76672 2H5.1912C4.34484 2 3.53314 2.33621 2.93468 2.93468C2.33621 3.53314 2 4.34484 2 5.1912V6.76672H6.76672V2Z" fill="currentColor"/>
<path d="M2 9.61665H6.76672V14.3834H2V9.61665Z" fill="currentColor"/>
<path d="M17.2333 21.9601H18.8088C19.2287 21.9601 19.6445 21.8772 20.0324 21.7162C20.4202 21.5552 20.7724 21.3192 21.0689 21.0219C21.3654 20.7245 21.6002 20.3715 21.76 19.9831C21.9198 19.5948 22.0013 19.1788 22 18.7588V17.2335H17.2333V21.9601Z" fill="currentColor"/>
<path d="M9.6166 17.2335H14.3833V22.0002H9.6166V17.2335Z" fill="currentColor"/>
<path d="M2 17.2335V18.809C2 19.6554 2.33621 20.4671 2.93468 21.0655C3.53314 21.664 4.34484 22.0002 5.1912 22.0002H6.76672V17.2335H2Z" fill="currentColor"/>
<path d="M18.7587 2.00002H9.6166V14.3333H21.9599V5.19121C21.9599 4.77129 21.877 4.3555 21.716 3.96767C21.555 3.57984 21.3191 3.2276 21.0217 2.93114C20.7243 2.63468 20.3713 2.39983 19.983 2.24004C19.5946 2.08026 19.1786 1.9987 18.7587 2.00002Z" fill="currentColor"/>
<path d="M6.76672 2H5.1912C4.34484 2 3.53314 2.33621 2.93468 2.93468C2.33621 3.53314 2 4.34484 2 5.1912V6.76672H6.76672V2Z" fill="currentColor"/>
<path d="M2 9.61665H6.76672V14.3834H2V9.61665Z" fill="currentColor"/>
<path d="M17.2333 21.9601H18.8088C19.2287 21.9601 19.6445 21.8772 20.0324 21.7162C20.4202 21.5552 20.7724 21.3192 21.0689 21.0219C21.3654 20.7245 21.6002 20.3715 21.76 19.9831C21.9198 19.5948 22.0013 19.1788 22 18.7588V17.2335H17.2333V21.9601Z" fill="currentColor"/>
<path d="M9.6166 17.2335H14.3833V22.0002H9.6166V17.2335Z" fill="currentColor"/>
<path d="M2 17.2335V18.809C2 19.6554 2.33621 20.4671 2.93468 21.0655C3.53314 21.664 4.34484 22.0002 5.1912 22.0002H6.76672V17.2335H2Z" fill="currentColor"/>
</svg>

<svg viewBox="0 0 24 24" fill="none" xmlns="http://www.w3.org/2000/svg"><path d="M18.759 2H9.617v12.333H21.96V5.191A3.191 3.191 0 0 0 18.759 2zM6.767 2H5.19A3.191 3.191 0 0 0 2 5.191v1.576h4.767V2zM2 9.617h4.767v4.766H2V9.617zM17.233 21.96h1.576A3.192 3.192 0 0 0 22 18.76v-1.526h-4.767v4.727zM9.617 17.233h4.766V22H9.617v-4.767zM2 17.233v1.576A3.191 3.191 0 0 0 5.191 22h1.576v-4.767H2z" fill="currentColor"/><path d="M18.759 2H9.617v12.333H21.96V5.191A3.191 3.191 0 0 0 18.759 2zM6.767 2H5.19A3.191 3.191 0 0 0 2 5.191v1.576h4.767V2zM2 9.617h4.767v4.766H2V9.617zM17.233 21.96h1.576A3.192 3.192 0 0 0 22 18.76v-1.526h-4.767v4.727zM9.617 17.233h4.766V22H9.617v-4.767zM2 17.233v1.576A3.191 3.191 0 0 0 5.191 22h1.576v-4.767H2z" fill="currentColor"/></svg>
